packages/core/src/svgs/btcst.svg

<svg width="24" height="24" viewBox="0 0 24 24" fill="none" xmlns="http://www.w3.org/2000/svg">
<g clip-path="url(#clip0_31_7548)">
<path d="M0 0H24V24H0V0Z" fill="url(#paint0_linear_31_7548)"/>
<path d="M7.60289 7.0072C7.83336 6.55636 8.18861 6.18131 8.62629 5.92675C9.06398 5.67219 9.56564 5.54887 10.0715 5.57148H15.0557C15.5872 5.57148 16.0029 5.75148 16.29 6.03434C16.5729 6.32148 16.7143 6.69863 16.7143 7.07148C16.7155 7.2638 16.6787 7.45446 16.6059 7.63247C16.533 7.81048 16.4257 7.9723 16.29 8.10863C16.1254 8.264 15.9315 8.38497 15.7195 8.46445C15.5076 8.54392 15.2819 8.58031 15.0557 8.57148H9.64289C8.97432 8.57148 8.43003 9.02577 8.0186 9.57863C8.22019 9.94109 8.51947 10.2397 8.88238 10.4405C9.2453 10.6413 9.65728 10.7361 10.0715 10.7143H14.0915C14.4571 10.7013 14.8214 10.7664 15.1599 10.9053C15.4984 11.0443 15.8033 11.2538 16.0543 11.5201C16.4855 12.0065 16.7207 12.6357 16.7143 13.2858C16.7143 13.9201 16.5 14.5629 16.0543 15.0515C15.8028 15.3183 15.4972 15.5282 15.1579 15.6671C14.8186 15.8061 14.4536 15.8709 14.0872 15.8572H8.78575C8.63549 15.8499 8.48546 15.8757 8.34625 15.9327C8.20704 15.9898 8.08203 16.0766 7.98003 16.1872C7.80416 16.3938 7.70968 16.6574 7.71432 16.9286C7.71432 17.2029 7.8086 17.4729 7.98003 17.6701C8.15146 17.8629 8.41718 18.0001 8.78575 18.0001H14.0915C14.5586 18.0001 15.0986 17.7601 15.5229 17.3615C15.7373 17.1721 15.911 16.9411 16.0333 16.6825C16.1556 16.4239 16.224 16.1431 16.2343 15.8572H16.6629C16.6629 16.5729 16.3029 17.2158 15.8186 17.6743C15.3558 18.1304 14.7406 18.3991 14.0915 18.4286H8.78575C8.57566 18.4357 8.36653 18.3972 8.17271 18.3158C7.97889 18.2345 7.80497 18.1121 7.66289 17.9572C7.41558 17.672 7.2814 17.3061 7.28575 16.9286C7.28575 16.5601 7.41003 16.1872 7.66289 15.9001C7.80497 15.7451 7.97889 15.6228 8.17271 15.5414C8.36653 15.46 8.57566 15.4216 8.78575 15.4286H14.0915C14.4498 15.4425 14.8059 15.3662 15.1272 15.2067C15.4484 15.0472 15.7244 14.8096 15.93 14.5158C15.8529 14.4301 15.75 14.3143 15.6129 14.1986C15.2485 13.8871 14.7851 13.7154 14.3057 13.7143H10.0715C9.63817 13.7214 9.2102 13.6181 8.82783 13.4142C8.44547 13.2102 8.12127 12.9124 7.88575 12.5486C7.51807 12.0054 7.3102 11.3699 7.28575 10.7143H7.71432C7.71432 11.1001 7.86432 11.7558 8.24146 12.3086C8.43762 12.6143 8.70881 12.8645 9.02917 13.0356C9.34952 13.2067 9.70836 13.2928 10.0715 13.2858H14.3057C14.6516 13.2855 14.9937 13.3588 15.3091 13.5006C15.6246 13.6425 15.9064 13.8497 16.1357 14.1086C16.2781 13.7246 16.3162 13.3098 16.2462 12.9063C16.1762 12.5028 16.0006 12.1251 15.7372 11.8115C15.5266 11.5889 15.2708 11.414 14.9869 11.2986C14.703 11.1833 14.3976 11.1302 14.0915 11.1429H10.0715C9.55575 11.1665 9.04446 11.0382 8.60104 10.7738C8.15762 10.5095 7.8016 10.1207 7.57718 9.65577C7.38157 9.2409 7.28228 8.78718 7.28673 8.32854C7.29118 7.86989 7.39926 7.41819 7.60289 7.0072ZM7.83003 9.12863C8.2586 8.61005 8.86718 8.14291 9.64289 8.14291H15.0557C15.4843 8.14291 15.7886 8.00148 15.9857 7.80005C16.1872 7.6072 16.2857 7.34148 16.2857 7.07148C16.2861 6.93628 16.2598 6.80235 16.2083 6.67733C16.1568 6.55232 16.0812 6.43868 15.9857 6.34291C15.8615 6.22647 15.7152 6.13613 15.5555 6.07724C15.3957 6.01835 15.2258 5.9921 15.0557 6.00005H10.0715C9.64483 5.97708 9.22067 6.07818 8.85028 6.29114C8.47988 6.5041 8.17911 6.81979 7.98432 7.20005C7.68858 7.79964 7.63338 8.48964 7.83003 9.12863Z" fill="white"/>
</g>
<defs>
<linearGradient id="paint0_linear_31_7548" x1="4.46571" y1="4.16143" x2="29.2071" y2="32.58" gradientUnits="userSpaceOnUse">
<stop stop-color="#1A1E21"/>
<stop offset="1" stop-color="#06060A"/>
</linearGradient>
<clipPath id="clip0_31_7548">
<rect width="24" height="24" fill="white"/>
</clipPath>
</defs>
</svg>

<svg xmlns="http://www.w3.org/2000/svg" width="24" height="24" fill="none" viewBox="0 0 24 24"><g clip-path="url(#a)"><path fill="url(#b)" d="M0 0h24v24H0z"/><path fill="#fff" d="M7.603 7.007a2.64 2.64 0 0 1 2.469-1.436h4.984c.531 0 .947.18 1.234.463.283.287.424.665.424 1.037a1.46 1.46 0 0 1-.424 1.038 1.7 1.7 0 0 1-1.234.462H9.643c-.669 0-1.213.455-1.624 1.008a2.22 2.22 0 0 0 2.053 1.135h4.02a2.57 2.57 0 0 1 1.962.806c.431.487.667 1.116.66 1.766 0 .634-.214 1.277-.66 1.766a2.57 2.57 0 0 1-1.967.805H8.786a1.03 1.03 0 0 0-.806.33c-.176.207-.27.47-.266.742 0 .274.095.544.266.741.171.193.437.33.806.33h5.306c.467 0 1.007-.24 1.43-.639a2.1 2.1 0 0 0 .712-1.504h.429c0 .716-.36 1.359-.844 1.817a2.63 2.63 0 0 1-1.728.755H8.787a1.46 1.46 0 0 1-1.123-.472 1.54 1.54 0 0 1-.377-1.028c0-.369.124-.742.377-1.029a1.46 1.46 0 0 1 1.123-.471h5.306a2.14 2.14 0 0 0 1.838-.913c-.077-.086-.18-.202-.317-.317a2.02 2.02 0 0 0-1.307-.485h-4.234a2.55 2.55 0 0 1-2.186-1.165 3.5 3.5 0 0 1-.6-1.835h.428c0 .386.15 1.042.527 1.595a2.13 2.13 0 0 0 1.83.977h4.235a2.44 2.44 0 0 1 1.83.823 2.32 2.32 0 0 0-.399-2.297 2.15 2.15 0 0 0-1.646-.67h-4.02a2.64 2.64 0 0 1-2.494-1.486 3.04 3.04 0 0 1 .026-2.649M7.83 9.13c.429-.519 1.037-.986 1.813-.986h5.413c.428 0 .733-.142.93-.343a1 1 0 0 0 .3-.729 1.03 1.03 0 0 0-.3-.728 1.27 1.27 0 0 0-.93-.343h-4.984a2.21 2.21 0 0 0-2.088 1.2c-.295.6-.35 1.29-.154 1.929"/></g><defs><linearGradient id="b" x1="4.466" x2="29.207" y1="4.161" y2="32.58" gradientUnits="userSpaceOnUse"><stop stop-color="#1A1E21"/><stop offset="1" stop-color="#06060A"/></linearGradient><clipPath id="a"><path fill="#fff" d="M0 0h24v24H0z"/></clipPath></defs></svg>
